X:679
T:Reel 679
M:4/4
K:Dmaj
L:1/8
AG|F>D (3DDD A,DDA,|F>D (3DCD A2GF|GE| (3EEE cE EG|EFGA BAGE|FDA,D FDAD|FDAF GBAG|FEDF EDB,C|DCDF D2|A2|dAd2 dAFD|CDEF GBAG|FDdF DEFD|ECA,B, CDEG|FDdD  (3FGA dA|GEFD EFGE|FABc dced| (3BcB AF GECE|
